sprinkler-fire.svg

<svg fill="currentColor" viewBox="0 0 24 24"><path d="M5 21v2h2v-2zm6 0H9v2h2zm-4-3v2h2v-2zm4-3v2H9v-2zm4 6h-2v2h2zm-4-3v2h2v-2zm4-3v2h-2v-2zm4 6h-2v2h2zm-4-3v2h2v-2zm1-7v2H8v-2h3V5h2v6zm5-10v2h-3v3l-4 4V7.2l2-2V3H8v2.2l2 2V10L6 6V3H3V1z"/></svg>

<svg  viewBox="0 0 24 24" fill="currentColor"><path  d="M5 21V23H7V21H5M11 21H9V23H11V21M7 18V20H9V18H7M11 15V17H9V15H11M15 21H13V23H15V21M11 18V20H13V18H11M15 15V17H13V15H15M19 21H17V23H19V21M15 18V20H17V18H15M16 11V13H8V11H11V5H13V11H16M21 1V3H18V6L14 10V7.2L16 5.2V3H8V5.2L10 7.2V10L6 6V3H3V1H21Z"/></svg>
